icon-themes/colibre_svg/sd/res/pubdes3.svg

<svg viewBox="0 0 90 90" xmlns="http://www.w3.org/2000/svg"><g transform="matrix(3.1851852 0 0 3.1851852 -7.555556 -7.555556)"><path d="m5 8v18h12.3a7 7 0 0 1 -.3-2 7 7 0 0 1 7-7 7 7 0 0 1 3 .685547v-9.685547z" fill="#fafafa"/><path d="m4 7v20h13.683594a7 7 0 0 1 -.383594-1h-12.3v-18h22v9.685547a7 7 0 0 1 1 .572265v-11.257812z" fill="#3a3a38"/><path d="m3 3h26v2h-26z" fill="#1e8bcd"/><path d="m7 11h18v2h-18z" fill="#fb983b"/><g fill="#3a3a38"><path d="m7 15h1v1h-1z"/><path d="m7 18h1v1h-1z"/><path d="m7 21h1v1h-1z"/><path d="m9 15h12v1h-12z"/><path d="m9 21h5v1h-5z"/><path d="m9 18h6v1h-6z"/><path d="m24 18a6 6 0 0 0 -6 6 6 6 0 0 0 6 6 6 6 0 0 0 6-6 6 6 0 0 0 -6-6zm0 1a5 5 0 0 1 5 5 5 5 0 0 1 -5 5 5 5 0 0 1 -5-5 5 5 0 0 1 5-5z"/></g><circle cx="24" cy="24" fill="#fafafa" r="5"/><path d="m22 21 5 3-5 3z" fill="#1e8bcd"/></g></svg>

<svg viewBox="0 0 90 90" xmlns="http://www.w3.org/2000/svg">
  <g
     id="g908-6-5"
     transform="matrix(3.1851852,0,0,3.1851852,-7.5555556,-7.5555558)">
    <path
       d="M 5,8 V 26 H 17.3 A 7,7 0 0 1 17,24 a 7,7 0 0 1 7,-7 7,7 0 0 1 3,0.685547 V 8 Z"
       style="fill:#ffffff" />
    <path
       d="M 4,7 V 27 H 17.683594 A 7,7 0 0 1 17.3,26 H 5 V 8 h 22 v 9.685547 a 7,7 0 0 1 1,0.572265 V 7 Z"
       style="fill:#808080" />
    <path
       d="M 3,3 H 29 V 5 H 3 Z"
       style="fill:#4d82b8" />
    <path
       d="m 7,11 h 18 v 2 H 7 Z"
       style="fill:#eac282" />
    <g
       style="fill:#808080">
      <path
         d="m 7,15 h 1 v 1 H 7 Z"
         />
      <path
         d="m 7,18 h 1 v 1 H 7 Z"
         />
      <path
         d="m 7,21 h 1 v 1 H 7 Z"
         />
      <path
         d="m 9,15 h 12 v 1 H 9 Z"
         />
      <path
         d="m 9,21 h 5 v 1 H 9 Z"
         />
      <path
         d="m 9,18 h 6 v 1 H 9 Z"
         />
      <path
         d="m 24,18 a 6,6 0 0 0 -6,6 6,6 0 0 0 6,6 6,6 0 0 0 6,-6 6,6 0 0 0 -6,-6 z m 0,1 a 5,5 0 0 1 5,5 5,5 0 0 1 -5,5 5,5 0 0 1 -5,-5 5,5 0 0 1 5,-5 z"
         />
    </g>
    <circle
       r="5"
       cy="24"
       cx="24"
       style="fill:#ffffff" />
    <path
       d="m 22,21 5,3 -5,3 z"
       style="fill:#4d82b8" />
  </g>
</svg>
